X: 2049
T: Zâvil Seyir
C: Erol Bingöl
O: Turkey
F: http://compmusic.upf.edu/node/140
N: zavil--seyir--musemmen--1--erol_bingol
N: makam= zavil
N: form= seyir
N: usul= musemmen = 8/8
M: 8/8
L: 1/16
K: C ^9/8f   
Q: 1/4=120
%%MIDI tuningsystem comma53
g2g2 g2fg afg6  | fgab agf2 fed4z2  | \
w:   |   | 
d2e2 f2g2 a2b2 a2g2  | 
w:   | 
c'2b2 a2g3/2f/ efg4z2  | fga2 a2g2 =f2e2 d2c2  | \
w:   |   | 
d2e2 dcc_2/4B BAA4z2  | 
w:   | 
_7/8B2BA G2A2 B2d^c BAG2  | A2_7/8B2 BAAG GFG6  | |


